app/client/src/assets/icons/blueprintjs/16px/sort-alphabetical.svg

<svg xmlns="http://www.w3.org/2000/svg" xml:space="preserve" viewBox="0 0 16 16"><path fill-rule="evenodd" d="M6 12c-.28 0-.53.11-.71.29l-.29.3V9c0-.55-.45-1-1-1s-1 .45-1 1v3.59l-.29-.29A.965.965 0 0 0 2 12a1.003 1.003 0 0 0-.71 1.71l2 2c.19.18.44.29.71.29.28 0 .53-.11.71-.29l2-2c.18-.18.29-.43.29-.71a.99.99 0 0 0-1-1zm7.93-.95v-1.04H9.25v1.11h2.94L9 14.96V16h5.02v-1.11h-3.27l3.18-3.84zm-1.42-4.84.62 1.78H15L11.94.01H10.1L7 7.99h1.81l.64-1.78h3.06zm-1.52-4.24h.02l1.03 2.93H9.92l1.07-2.93z" clip-rule="evenodd"/></svg>

<?xml version="1.0" encoding="utf-8"?>
<!-- Generator: Adobe Illustrator 18.0.0, SVG Export Plug-In . SVG Version: 6.00 Build 0)  -->
<svg version="1.1" id="Layer_1" xmlns="http://www.w3.org/2000/svg" xmlns:xlink="http://www.w3.org/1999/xlink" x="0px" y="0px"
	 viewBox="0 0 16 16" enable-background="new 0 0 16 16" xml:space="preserve">
<g id="sort_alphabetical_1_">
	<g>
		<path fill-rule="evenodd" clip-rule="evenodd" d="M6,12c-0.28,0-0.53,0.11-0.71,0.29L5,12.59V9c0-0.55-0.45-1-1-1
			C3.45,8,3,8.45,3,9v3.59l-0.29-0.29h0C2.53,12.11,2.28,12,2,12c-0.55,0-1,0.45-1,1c0,0.28,0.11,0.53,0.29,0.71l2,2
			C3.48,15.89,3.73,16,4,16c0.28,0,0.53-0.11,0.71-0.29l2-2c0.18-0.18,0.29-0.43,0.29-0.71C7.01,12.45,6.56,12,6,12z M13.93,11.05
			v-1.04H9.25v1.11h2.94L9,14.96V16h5.02v-1.11h-3.27L13.93,11.05z M12.51,6.21l0.62,1.78H15l-3.06-7.98H10.1L7,7.99h1.81l0.64-1.78
			H12.51z M10.99,1.97h0.02l1.03,2.93H9.92L10.99,1.97z"/>
	</g>
</g>
</svg>
